X:1
T:Aftnen er stille
T:Aftnen er stille
T:Agathe Backer-Grøndahl
T:Bjørnstjerne Bjørnson
C:Agathe Backer-Grøndahl
Z:Bjørnstjerne Bjørnson
%%score [ ( 1 2 ) ( 3 4 ) ]
L:1/8
Q:1/4=82
M:3/4
K:Eb
V:1 treble nm="S\nA"
V:2 treble 
V:3 bass nm="T\nB"
V:4 bass 
V:1
"^Andante"!mf! E3 E E2 | E4 E2 | E3 E E2 | E4 F2 | E3 E E2 | G2 E2 F2 | E2 E3 E | (E4 D2) | %8
w: Aft- nen er|stil- le,|ti- men- e|til- le|lyd- lø- se|ned i det|e- vi- ge|veld. *|
w: Vin- te- ren|drøm- mer,|stjer- ne- ne|svøm- mer|gjen- nem dens|flor- let- te|sy- ner og|ler. *|
!<(! E3 E!<)! E2 | E4 E2 |"^cresc." E3 E E2 | E4 E2 |!f! D2 D2 E2 | D2!>(! D2 F2 | E4!>)!!p! E2 | %15
w: Kun mi- ne|tan- ker|lyt- ten- de|van- ker.|Vil hun ei|kom- me i|kveld, ei|
w: Nev- nen- de|som- mer,|el- skov og|blom- mer:|Tør hun ei|mø- te, meg|mer, ei|
 E2 C2 B,2 | B,6 |] %17
w: kom- me i|kveld?|
w: mø- te meg|mer?|
V:2
 E3 E c2 | B4 G2 | E3 F G2 | B4 A2 | G3 G G2 | B2 G2 F2 | E2 G3 F | F6 | E3 E c2 | B4 G2 | %10
 E3 G B2 | e4 c2 | B2 G2 c2 | B2 G2 A2 | G4 G2 | F2 C2 D2 | E6 |] %17
V:3
!mf! E,3 E, E,2 | E,4 E,2 | E,3 E, E,2 | (G,3 A,) B,2 | C3 B, G,2 | E,2 E,2 D,2 | C,2 C,3 F, | %7
 B,,6 |!<(! E,3 E,!<)! E,2 | E,4 E,2 |"_cresc." G,3 G, E,2 | C,4 C,2 |!f! G,2 G,2 C,2 | %13
 G,2!>(! G,2 F,2 | C,4!>)!!p! C,2 | F,2 B,,2 B,,2 | E,6 |] %17
V:4
 G,3 G, A,2 | G,4 C2 | G,3 A, B,2 | B,4 D2 | E3 C C2 | C2 C2 F,2 | =A,2 A,3 A, | A,6 | G,3 G, A,2 | %9
 G,4 C2 | B,3 B, G,2 | =A,4 A,2 | B,2 B,2 G,2 | B,2 B,2 C2 | (C2 B,2) B,2 | =A,2 _A,2 A,2 | G,6 |] %17

